src/images/single-assets/BSCDEFI.svg

<svg width="128" height="128" viewBox="0 0 128 128" fill="none" xmlns="http://www.w3.org/2000/svg">
<circle cx="64" cy="64" r="64" fill="black"/>
<path d="M51.0727 40.7732L43.3481 36.2837L64.3589 24L85.4317 36.2837L77.707 40.7732L64.3589 33.0413L51.0727 40.7732ZM90.9316 48.505V57.5464L98.6561 53.0569V44.0156L90.9316 39.4637L83.207 43.9533L90.9316 48.505ZM85.4317 51.7475L64.3589 39.4637L43.3481 51.7475V76.3149L64.3589 88.4739L85.4317 76.3149V51.7475ZM90.9316 79.495L77.6452 87.2268V96.2681L98.7179 83.9844V59.4794L90.9316 64.0312V79.495ZM56.6343 90.4692V99.5106L64.3589 104L72.0835 99.5106V90.4692L64.3589 94.9587L56.6343 90.4692ZM30 53.0569L37.7246 57.5464V48.505L45.4492 44.0156L37.7863 39.4637L30.0618 43.9533V53.0569H30ZM37.7863 64.0312L30.0618 59.5417V84.0467L51.1344 96.3305V87.2892L37.7863 79.495V64.0312Z" fill="white"/>
</svg>

<svg xmlns="http://www.w3.org/2000/svg" width="128" height="128" fill="none"><circle cx="64" cy="64" r="64" fill="#000"/><path fill="#fff" d="m51.073 40.773-7.725-4.49L64.358 24l21.074 12.284-7.725 4.49-13.348-7.733zm39.859 7.732v9.041l7.724-4.49v-9.04l-7.724-4.552-7.725 4.49zm-5.5 3.242L64.359 39.465l-21.01 12.284v24.567l21.01 12.159 21.073-12.16zm5.5 27.748-13.287 7.732v9.041l21.073-12.284V59.48l-7.786 4.552zM56.634 90.469v9.042L64.36 104l7.725-4.49v-9.04l-7.725 4.489zM30 53.057l7.725 4.49v-9.042l7.724-4.49-7.663-4.551-7.724 4.49v9.103zm7.786 10.974-7.724-4.49v24.506L51.134 96.33v-9.042l-13.348-7.794z"/></svg>
